symbols/web/self_improvement/materialsymbolsrounded/self_improvement_40px.svg

<svg xmlns="http://www.w3.org/2000/svg" height="40" width="40"><path d="M20 12.958q-1.292 0-2.208-.937-.917-.938-.917-2.229 0-1.292.917-2.209.916-.916 2.208-.916 1.292 0 2.208.916.917.917.917 2.209 0 1.291-.917 2.229-.916.937-2.208.937Zm-8.958 20.375q-1.167 0-1.917-.771-.75-.77-.75-1.895 0-.792.417-1.5.416-.709 1.166-1.042l6.917-2.75v-5.083Q14.542 23.125 12 24.708q-2.542 1.584-5.583 1.875-.584.042-1-.354Q5 25.833 5 25.208q0-.541.375-.937t.958-.479q2.417-.292 4.417-1.5 2-1.209 3.625-3.25l2.333-2.709q.459-.541 1.063-.854.604-.312 1.271-.312h1.916q.667 0 1.292.312.625.313 1.042.854l2.375 2.709Q27.375 21 29.333 22.25q1.959 1.25 4.334 1.542.583.083.958.479.375.396.375.937 0 .625-.417 1.021-.416.396-1 .354-3.041-.291-5.583-1.895-2.542-1.605-4.875-4.396v5.083l6.917 2.75q.75.333 1.166 1.042.417.708.417 1.5 0 1.125-.75 1.895-.75.771-1.917.771H16.542v-.583q0-1.083.687-1.771.688-.687 1.771-.687h5.375q.333 0 .583-.23.25-.229.25-.604 0-.333-.25-.583-.25-.25-.583-.25H19q-1.792 0-2.917 1.167-1.125 1.166-1.125 2.958v.583Z"/></svg>

<svg xmlns="http://www.w3.org/2000/svg" height="40" width="40"><path d="M20 12.958Q18.708 12.958 17.792 12.021Q16.875 11.083 16.875 9.792Q16.875 8.5 17.792 7.583Q18.708 6.667 20 6.667Q21.292 6.667 22.208 7.583Q23.125 8.5 23.125 9.792Q23.125 11.083 22.208 12.021Q21.292 12.958 20 12.958ZM11.042 33.333Q9.875 33.333 9.125 32.562Q8.375 31.792 8.375 30.667Q8.375 29.875 8.792 29.167Q9.208 28.458 9.958 28.125L16.875 25.375V20.292Q14.542 23.125 12 24.708Q9.458 26.292 6.417 26.583Q5.833 26.625 5.417 26.229Q5 25.833 5 25.208Q5 24.667 5.375 24.271Q5.75 23.875 6.333 23.792Q8.75 23.5 10.75 22.292Q12.75 21.083 14.375 19.042L16.708 16.333Q17.167 15.792 17.771 15.479Q18.375 15.167 19.042 15.167H20.958Q21.625 15.167 22.25 15.479Q22.875 15.792 23.292 16.333L25.667 19.042Q27.375 21 29.333 22.25Q31.292 23.5 33.667 23.792Q34.25 23.875 34.625 24.271Q35 24.667 35 25.208Q35 25.833 34.583 26.229Q34.167 26.625 33.583 26.583Q30.542 26.292 28 24.688Q25.458 23.083 23.125 20.292V25.375L30.042 28.125Q30.792 28.458 31.208 29.167Q31.625 29.875 31.625 30.667Q31.625 31.792 30.875 32.562Q30.125 33.333 28.958 33.333H16.542V32.75Q16.542 31.667 17.229 30.979Q17.917 30.292 19 30.292H24.375Q24.708 30.292 24.958 30.062Q25.208 29.833 25.208 29.458Q25.208 29.125 24.958 28.875Q24.708 28.625 24.375 28.625H19Q17.208 28.625 16.083 29.792Q14.958 30.958 14.958 32.75V33.333Z"/></svg>
